mono-glyphs/video-w.svg

<svg xmlns="http://www.w3.org/2000/svg" width="1024" height="1024" fill="none" viewBox="0 0 1024 1024">
  <path fill="#fff" d="M252 960c-25 0-48.917-5.083-71.75-15.25s-42.833-23.833-60-41-30.833-37.167-41-60C69.083 820.917 64 797 64 772V252c0-25 5.083-48.917 15.25-71.75s23.833-42.833 41-60 37.167-30.833 60-41C203.083 69.083 227 64 252 64h520c25 0 48.917 5.083 71.75 15.25s42.833 23.833 60 41 30.833 37.167 41 60C954.917 203.083 960 227 960 252v520c0 25-5.083 48.917-15.25 71.75s-23.833 42.833-41 60-37.167 30.833-60 41C820.917 954.917 797 960 772 960H252Zm518.5-64c16.667 0 32.583-3.417 47.75-10.25 15.167-6.833 28.5-16 40-27.5s20.667-24.833 27.5-40c6.833-15.167 10.25-31.083 10.25-47.75v-517c0-16.667-3.417-32.583-10.25-47.75-6.833-15.167-16-28.5-27.5-40s-24.833-20.667-40-27.5C803.083 131.417 787.167 128 770.5 128h-517c-16.667 0-32.583 3.417-47.75 10.25-15.167 6.833-28.5 16-40 27.5s-20.667 24.833-27.5 40C131.417 220.917 128 236.833 128 253.5v517c0 16.667 3.417 32.583 10.25 47.75 6.833 15.167 16 28.5 27.5 40s24.833 20.667 40 27.5c15.167 6.833 31.083 10.25 47.75 10.25h517ZM192 288v-64c0-8.667 3.167-16.167 9.5-22.5 6.333-6.333 13.833-9.5 22.5-9.5s16.167 3.167 22.5 9.5c6.333 6.333 9.5 13.833 9.5 22.5v64c0 8.667-3.167 16.167-9.5 22.5-6.333 6.333-13.833 9.5-22.5 9.5s-16.167-3.167-22.5-9.5c-6.333-6.333-9.5-13.833-9.5-22.5Zm576 0v-64c0-8.667 3.167-16.167 9.5-22.5 6.333-6.333 13.833-9.5 22.5-9.5s16.167 3.167 22.5 9.5c6.333 6.333 9.5 13.833 9.5 22.5v64c0 8.667-3.167 16.167-9.5 22.5-6.333 6.333-13.833 9.5-22.5 9.5s-16.167-3.167-22.5-9.5c-6.333-6.333-9.5-13.833-9.5-22.5ZM192 544v-64c0-8.667 3.167-16.167 9.5-22.5 6.333-6.333 13.833-9.5 22.5-9.5s16.167 3.167 22.5 9.5c6.333 6.333 9.5 13.833 9.5 22.5v64c0 8.667-3.167 16.167-9.5 22.5-6.333 6.333-13.833 9.5-22.5 9.5s-16.167-3.167-22.5-9.5c-6.333-6.333-9.5-13.833-9.5-22.5Zm576 0v-64c0-8.667 3.167-16.167 9.5-22.5 6.333-6.333 13.833-9.5 22.5-9.5s16.167 3.167 22.5 9.5c6.333 6.333 9.5 13.833 9.5 22.5v64c0 8.667-3.167 16.167-9.5 22.5-6.333 6.333-13.833 9.5-22.5 9.5s-16.167-3.167-22.5-9.5c-6.333-6.333-9.5-13.833-9.5-22.5ZM192 800v-64c0-8.667 3.167-16.167 9.5-22.5 6.333-6.333 13.833-9.5 22.5-9.5s16.167 3.167 22.5 9.5c6.333 6.333 9.5 13.833 9.5 22.5v64c0 8.667-3.167 16.167-9.5 22.5-6.333 6.333-13.833 9.5-22.5 9.5s-16.167-3.167-22.5-9.5c-6.333-6.333-9.5-13.833-9.5-22.5Zm576 0v-64c0-8.667 3.167-16.167 9.5-22.5 6.333-6.333 13.833-9.5 22.5-9.5s16.167 3.167 22.5 9.5c6.333 6.333 9.5 13.833 9.5 22.5v64c0 8.667-3.167 16.167-9.5 22.5-6.333 6.333-13.833 9.5-22.5 9.5s-16.167-3.167-22.5-9.5c-6.333-6.333-9.5-13.833-9.5-22.5Z"/>
</svg>

<svg width="1024" height="1024" viewBox="0 0 1024 1024" fill="none" xmlns="http://www.w3.org/2000/svg">
<path d="M252 960C227 960 203.083 954.917 180.25 944.75C157.417 934.583 137.417 920.917 120.25 903.75C103.083 886.583 89.4167 866.583 79.25 843.75C69.0833 820.917 64 797 64 772V252C64 227 69.0833 203.083 79.25 180.25C89.4167 157.417 103.083 137.417 120.25 120.25C137.417 103.083 157.417 89.4167 180.25 79.25C203.083 69.0834 227 64.0001 252 64H772C797 64.0001 820.917 69.0834 843.75 79.25C866.583 89.4167 886.583 103.083 903.75 120.25C920.917 137.417 934.583 157.417 944.75 180.25C954.917 203.083 960 227 960 252V772C960 797 954.917 820.917 944.75 843.75C934.583 866.583 920.917 886.583 903.75 903.75C886.583 920.917 866.583 934.583 843.75 944.75C820.917 954.917 797 960 772 960H252ZM770.5 896C787.167 896 803.083 892.583 818.25 885.75C833.417 878.917 846.75 869.75 858.25 858.25C869.75 846.75 878.917 833.417 885.75 818.25C892.583 803.083 896 787.167 896 770.5V253.5C896 236.833 892.583 220.917 885.75 205.75C878.917 190.583 869.75 177.25 858.25 165.75C846.75 154.25 833.417 145.083 818.25 138.25C803.083 131.417 787.167 128 770.5 128H253.5C236.833 128 220.917 131.417 205.75 138.25C190.583 145.083 177.25 154.25 165.75 165.75C154.25 177.25 145.083 190.583 138.25 205.75C131.417 220.917 128 236.833 128 253.5V770.5C128 787.167 131.417 803.083 138.25 818.25C145.083 833.417 154.25 846.75 165.75 858.25C177.25 869.75 190.583 878.917 205.75 885.75C220.917 892.583 236.833 896 253.5 896H770.5ZM192 288V224C192 215.333 195.167 207.833 201.5 201.5C207.833 195.167 215.333 192 224 192C232.667 192 240.167 195.167 246.5 201.5C252.833 207.833 256 215.333 256 224V288C256 296.667 252.833 304.167 246.5 310.5C240.167 316.833 232.667 320 224 320C215.333 320 207.833 316.833 201.5 310.5C195.167 304.167 192 296.667 192 288ZM768 288V224C768 215.333 771.167 207.833 777.5 201.5C783.833 195.167 791.333 192 800 192C808.667 192 816.167 195.167 822.5 201.5C828.833 207.833 832 215.333 832 224V288C832 296.667 828.833 304.167 822.5 310.5C816.167 316.833 808.667 320 800 320C791.333 320 783.833 316.833 777.5 310.5C771.167 304.167 768 296.667 768 288ZM192 544V480C192 471.333 195.167 463.833 201.5 457.5C207.833 451.167 215.333 448 224 448C232.667 448 240.167 451.167 246.5 457.5C252.833 463.833 256 471.333 256 480V544C256 552.667 252.833 560.167 246.5 566.5C240.167 572.833 232.667 576 224 576C215.333 576 207.833 572.833 201.5 566.5C195.167 560.167 192 552.667 192 544ZM768 544V480C768 471.333 771.167 463.833 777.5 457.5C783.833 451.167 791.333 448 800 448C808.667 448 816.167 451.167 822.5 457.5C828.833 463.833 832 471.333 832 480V544C832 552.667 828.833 560.167 822.5 566.5C816.167 572.833 808.667 576 800 576C791.333 576 783.833 572.833 777.5 566.5C771.167 560.167 768 552.667 768 544ZM192 800V736C192 727.333 195.167 719.833 201.5 713.5C207.833 707.167 215.333 704 224 704C232.667 704 240.167 707.167 246.5 713.5C252.833 719.833 256 727.333 256 736V800C256 808.667 252.833 816.167 246.5 822.5C240.167 828.833 232.667 832 224 832C215.333 832 207.833 828.833 201.5 822.5C195.167 816.167 192 808.667 192 800ZM768 800V736C768 727.333 771.167 719.833 777.5 713.5C783.833 707.167 791.333 704 800 704C808.667 704 816.167 707.167 822.5 713.5C828.833 719.833 832 727.333 832 736V800C832 808.667 828.833 816.167 822.5 822.5C816.167 828.833 808.667 832 800 832C791.333 832 783.833 828.833 777.5 822.5C771.167 816.167 768 808.667 768 800Z" fill="white"/>
</svg>
